fs/arrow_maximize_20_regular.svg

<svg viewBox="0 0 20 20" fill="none" xmlns="http://www.w3.org/2000/svg" height="1em" width="1em">
  <path d="M10.5 3L16.5428 3.00182L16.6281 3.01661L16.691 3.03779L16.767 3.07719L16.8221 3.11759L16.8824 3.17788L16.9112 3.21534L16.9533 3.2886L16.9834 3.37186L16.9979 3.45421L17 3.5V9.5C17 9.77614 16.7761 10 16.5 10C16.2545 10 16.0504 9.82312 16.0081 9.58988L16 9.5V4.706L4.706 16H9.5C9.74546 16 9.94961 16.1769 9.99194 16.4101L10 16.5C10 16.7455 9.82312 16.9496 9.58988 16.9919L9.5 17L3.47964 16.9996L3.4112 16.9921L3.30896 16.9622L3.23299 16.9228L3.17786 16.8824L3.11758 16.8221L3.08884 16.7847L3.04674 16.7114L3.01661 16.6281L3.01109 16.605C3.00383 16.5713 3 16.5361 3 16.5L3.00546 16.5739L3.00182 16.5428L3 10.5C3 10.2239 3.22386 10 3.5 10C3.74546 10 3.94961 10.1769 3.99194 10.4101L4 10.5V15.292L15.292 4H10.5C10.2545 4 10.0504 3.82312 10.0081 3.58988L10 3.5C10 3.22386 10.2239 3 10.5 3Z" fill="#212121"/>
</svg>

<svg viewBox="0 0 20 20" fill="none" xmlns="http://www.w3.org/2000/svg" height="1em" width="1em">
  <path d="m10.5 3 6.043.002.085.015.063.02.076.04.055.04.06.06.03.038.041.074.03.083.015.082L17 3.5v6a.5.5 0 0 1-.992.09L16 9.5V4.706L4.706 16H9.5a.5.5 0 0 1 .492.41l.008.09a.5.5 0 0 1-.41.492L9.5 17H3.48l-.069-.008-.102-.03-.076-.04-.055-.04-.06-.06-.03-.037-.041-.074-.03-.083-.006-.023A.499.499 0 0 1 3 16.5l.005.074-.003-.031L3 10.5a.5.5 0 0 1 .992-.09L4 10.5v4.792L15.292 4H10.5a.5.5 0 0 1-.492-.41L10 3.5a.5.5 0 0 1 .5-.5Z" fill="#212121"/>
</svg>
